styles/emoji-one/1f5c2.svg

<svg xmlns="http://www.w3.org/2000/svg" viewBox="0 0 64 64" enable-background="new 0 0 64 64"><path fill="#89664c" d="m63.44 24.74h-15.754v34.26l16.02-32.382c.482-.998.36-1.813-.261-1.879"/><path fill="#aa7d5e" d="m60.818 21.298h-15.754l2.625 37.703 13.39-35.824c.482-.998.36-1.813-.261-1.879"/><path fill="#d3976e" d="m56.1 17.856h-8.411v41.15l9.377-38.836c.304-1.276-.129-2.309-.966-2.309"/><path fill="#f2bc97" d="m52.16 12.959h-8.411l3.944 46.04 5.433-43.733c.305-1.275-.129-2.309-.966-2.309"/><path fill="#ffce31" d="m45.805 10.971h-21.962v-3.375c0-1.434-.843-2.596-1.884-2.596h-20.07c-1.042 0-1.885 1.162-1.885 2.596v51.41h47.689v-45.43c0-1.433-.843-2.596-1.884-2.596"/><g fill="#fff"><ellipse cx="10.792" cy="54.707" rx="2.502" ry="2.511"/><path d="m23.92 52.2c-1.386 0-2.498 1.124-2.498 2.51 0 1.389 1.112 2.512 2.498 2.512 1.381 0 2.502-1.123 2.502-2.512 0-1.386-1.121-2.51-2.502-2.51"/><ellipse cx="36.898" cy="54.707" rx="2.5" ry="2.511"/></g></svg>

<svg xmlns="http://www.w3.org/2000/svg" viewBox="0 0 64 64"><path fill="#89664c" d="M63.44 24.74H47.686V59l16.02-32.382c.482-.998.36-1.813-.261-1.879"/><path fill="#aa7d5e" d="M60.818 21.298H45.064l2.625 37.703 13.39-35.824c.482-.998.36-1.813-.261-1.879"/><path fill="#d3976e" d="M56.1 17.856h-8.411v41.15l9.377-38.836c.304-1.276-.129-2.309-.966-2.309"/><path fill="#f2bc97" d="M52.16 12.959h-8.411l3.944 46.04 5.433-43.733c.305-1.275-.129-2.309-.966-2.309"/><path fill="#ffce31" d="M45.805 10.971H23.843V7.596C23.843 6.162 23 5 21.959 5H1.889C.847 5 .004 6.162.004 7.596v51.41h47.689v-45.43c0-1.433-.843-2.596-1.884-2.596"/><g fill="#fff"><ellipse cx="10.792" cy="54.707" rx="2.502" ry="2.511"/><path d="M23.92 52.2a2.5 2.5 0 0 0-2.498 2.51 2.5 2.5 0 0 0 2.498 2.512 2.506 2.506 0 0 0 2.502-2.512 2.507 2.507 0 0 0-2.502-2.51"/><ellipse cx="36.898" cy="54.707" rx="2.5" ry="2.511"/></g></svg>
